!!!!SEGMENT:Kisenkuzushi.krn
!!!OTL: 喜撰くづし
!!!OPR:Eiga Banso Kyokusyu,jidai-geki,kouhen
!!!YOY:1928
!!!ONB:Nigiyakana_bamen
**kern
*k[f#]
*G:
*M2/4
=1
8.BL
16ak
8b
8bJ
=2
8eL
8f#
8e
8f#J
=3
8eL
8f#J
8eL
16f#L
16eJJ
=4
8cL
8BJ
4r
=5:|!
4e
4e
=6
8eL
8cJ
4B
=7
4f#
4f#
=8
8eL
8cJ
4B
=9
8cL
8cJ
4r
=10
8cL
8cJ
4r
=11
4c
4c
=12
4c
8cL
8bJ
=13
8r
8aL
8a
8fnJ
=14
8aL
8bJ
8aL
8bJ
=15
4d
4d
=16
4d
8dL
8eJ
=17
8r
8dL
8e
8fnJ
=18
8eL
8cJ
4B
=19!|:
8r
8aL
8b
8ccJ
=20
8aL
16bL
16aJJ
8fnL
8eJ
=21
8aL
16aL
16aJJ
8aL
16aL
16aJJ
=22
8aL
16aL
16aJJ
8aL
8bJ
=23:|!
8f#L
8f#J
4r
=24
8f#L
8f#J
4r
=25
4f#
4f#
=26
4f#
8f#L
8f#J
=27
8r
16gLL
16gJJ
8gL
8gJ
=28
8gL
8b
8g
8f#J
=29
8eL
8f#J
8gL
8f#J
=30
8eL
16f#L
16eJJ
8cL
8BJ
=31
8dL
8eJ
16BLL
16fn
16f
16eJJ
=32
8dL
8eJ
4r
==
*-
!!!ENC: Yukiko Yoden
!!!END: 2023/06/11
